X:1
T:Didos' Lament
T:Didos' Lament
T:from " Dido and Aeneas
T:Henry Purcell (1658-1695)
C:Henry Purcell (1658-1695)
L:1/8
Q:1/4=63
M:3/2
K:Bb
V:1 treble nm="Mezzo-soprano" snm="Mzs."
V:1
"^Larghetto" G4 A4 B4 | (B4 A4) =B4 | (c3 B A3 G ^F3) G | ^F8 d3 d | (d3 c B4) A4 | B8 e4 | %6
w: When I am|laid, * am|laid * * * * in|earth, may my|wrongs * * cre-|ate no|
 (e2 A2) A4 d4 | (dG) G2 A4 G4 | A8 z4 | z12 | G4 A4 B4 | (B4 A4) =B4 | (c3 B A3 G ^F3) G | %13
w: trou- * ble no|trou- * ble in thy|breast||When I am|laid, * am|laid * * * * in|
 ^F8 d3 d | (d3 c B4) A4 | B8 e4 | (e2 A2) A4 d4 | (dG) G2 A4 G4 | A8 z4 | z4 z4 z2 d2 | %20
w: earth, may my|wrongs * * cre-|ate no|trou- * ble no|trou- * ble in thy|breast|re-|
 d3 d d4 z4 | z4 z4 z2 d2 | d3 d d4 z4 | z4 z4 d4 | (c4 B4) (c2 A2) | ((B3 c) c6) d2 | d8 z2 d2 | %27
w: mem- ber me,|Re-|mem- ber me,|but|ah! * for- *|get * * my|fate. Re-|
 g3 g g6 c2 | (de f4 e2 d4) | (c2 B2) B4 (!fermata!A2 G2) | G12 |] %31
w: mem- ber me, but|ah! * * * *|for * get my *|fate.|

